X: 20912
T: The TIPSY HIBERNIAN
C: Reeve.
Q: "With spirit."
%R: jig
B: W. Hamilton "Universal Tune-Book" Vol. 2 Glasgow 1846 p.92 #2
S: http://s3-eu-west-1.amazonaws.com/itma.dl.printmaterial/book_pdfs/hamiltonvol2web.pdf
Z: 2016 John Chambers <jc:trillian.mit.edu>
M: 6/8
L: 1/8
K: C
% - - - - - - - - - - - - - - - - - - - - - - - - -
G/G/ |\
cde cde | d^cd dgg | ecc ccc | ABc BGG |\
cde cde | d^cd dgg | GGG Bcd | ABc BG |]\
e/=f/ |
gee gee | fdd f2d | ecc gcc | Add d2e/f/ |\
ecc ecc | Aff fd d/e/ | fdd fdd | gee afa |\
gec cfe | d2c c2 |]
% - - - - - - - - - - - - - - - - - - - - - - - - -

%%sep 1 1 500
%%sep 1 1 500

